X:1
T:The House of Cluny
T:The House of Cluny
T:William Marshall
C:William Marshall
L:1/8
Q:1/8=128
M:4/4
K:F
V:1 treble 
V:1
|: C | F<F A>F A<c F2 | E>G G<c G<c E>C | F<F A>F A>c f>c | d/c/B/A/ Gc/B/ A<F FC | %5
 F<F A>F A<c F2 | E>G G<c G<c E>C | F<F A>F A>c f>c | d/c/B/A/ Gc/B/ A<F Fc | f/e/d/c/ f>c d<c f2 | %10
 f>e d<c f<a ge | f/e/d/c/ f>c d<B d<B | c>B A>G F2 Fc | f/e/d/c/ f>c d<c f2 | f>e d<c f<a ge | %15
 f/g/a/g/ f<c d>f B>d | c>A c/B/A/G/ F2 F :| %17

